X:1
T:6 Gedichte
T:An den Sonnenschein
T:Robert Schumann
T:Robert Reinick
T:An den Sonnenschein
T:Nr. 4 aus 6 Gedichte, Op.36 bearbeitet für gemischten Chor
T:CPDL - Creative Commons Attribution Non Commercial 3.0
T:CPDL - Creative Commons Attribution Non Commercial 3.0
T:CPDL - Creative Commons Attribution Non Commercial 3.0
T:CPDL - Creative Commons Attribution Non Commercial 3.0
C:Robert Schumann
Z:Robert Reinick
Z:CPDL - Creative Commons Attribution Non Commercial 3.0
%%score [ ( 1 2 ) ( 3 4 ) ]
L:1/8
Q:1/4=100
M:4/4
K:A
V:1 treble nm="Sopran\nAlt"
V:2 treble 
V:3 bass nm="Tenor\nBass"
V:4 bass 
V:1
"^Frisch"!mf!"^Chor" C2 |!<(! C3 E !breath!E2 E2 | E3!<)! A !breath!A2!f! AB | c2 B2 A2 G2 | %4
w: O|Son- nen- schein! o|Son- nen- schein! Wie *|scheinst du mir ins|
 G3!>(! F !breath!F2!>)! |!<(! F2 | F3 A A2 A2!<)! | A3!>(! d !breath!!fermata!d2!>)!!f! de | %8
w: Herz hin- ein!|Weckst|drin- nen lau- ter|Lie- bes- lust, dass *|
 f2 e2 d2 c2 | B3!>(! A !breath!A2!>)!!mf!"^Halbchor" E2 | E3!<(! G G2 G2!<)! | %11
w: mir so en- ge|wird die Brust, und|en- ge wird mir|
 G3!>(! B !breath!B2!>)!"^Soli"!p! .B2 | .B2 .B2 .B2 c^d | .e2 .B2 !breath!.G2"^Halbchor"!mf! E2 | %14
w: Stub' und Haus, ja|en- ge wird mir *|Stub' und Haus, und|
!<(! E3 G G2!<)! G2 | G3!>(! B !breath!B2!>)!"^Soli"!p! .B2 | .B2 .B2 .B2 c^d | %17
w: wenn ich lauf' zum|Tor hin- aus, und|wenn ich lauf' zum *|
 .e2 .B2 !breath!.G2!mf!"^Halbchor" E2 | !>!E3!<(! A A2 A2 | !>!A3 c!<)! !breath!c2!f! AB | %20
w: Tor hin- aus, da|lockst du gar ins|fri- sche Grün die *|
 c2 B2!>(! A2 G2!>)! | !>!G3 F !breath!F2!p!"^Soli" A2 | F3[Q:1/4=90]"^rit." A A2 A2 | %23
w: al- ler- schöns- ten|Mäd- chen hin, die|al- ler- schöns- ten|
!pp! (A3 d) !breath!!fermata!d2"^Chor"!mf! de | f2 e2 d2!>(! c2 | (B3 A) !breath!!fermata!A2!>)! | %26
w: Mäd- * chen, die _|al- ler- schöns- ten|Mäd- * chen!|
!p! E2 | !>!F3 F !breath!E2 E2 | !>!F3 F !breath!E2!<(! EA | G2 F2 E2 EA!<)! | %30
w: O|Son- nen- schein, du|glau- best wohl, dass *|ich wie du es *|
 G2!>(! F2 !breath!E2!>)!!p! E2 | !>!F3 F | E2 E2 | !>!F3 F E2!<(! EA | G2 F2 E2 EA!<)! | %35
w: ma- chen soll, der|je- de|schmu- cke|Blu- me küsst, die _|e- ben nur sich *|
 G2!>(! F2 !breath!E2!>)!!mf! C2 |!<(! C3 E E2 E2 | E3 A!<)! !breath!A2!<(! AB | c2 B2!<)! A2 G2 | %39
w: dir er- schließt? Hast|doch so lang' die|Welt er- blickt, und *|weißt, dass sich's für|
!>(! G3 F!>)! !breath!F2 F2 |!<(! F3 A A2 A2!<)! |!f! A3!>(! d!>)! !breath!d2!f! A2 | %42
w: mich nicht schickt! Was|machst du mir denn|sol- che Pein? Was|
!<(! A3 d d2 d2!<)! |!ff! d3 f !breath!!fermata!f2 f2 |[Q:1/4=90]"^riten." G6 A2 | %45
w: machst du mir denn|sol- che Pein? O|Son- nen-|
 !breath!!fermata!A6!pp! E2 | E6 E2 | !fermata!E6 |] %48
w: schein! o|Son- nen-|schein!|
V:2
 A,2 | A,3 C C2 C2 | C3 E E2 E2 | A2 E2 E2 E2 | E3 D D2 | D2 | D3 F F2 F2 | F3 F F2 F2 | %8
 F2 F2 F2 F2 | G3 A A2 E2 | E3 E E2 E2 | E3 G G2 FG | A2 G2 F2 F2 | E2 ^D2 E2 E2 | E3 E E2 E2 | %15
 E3 G G2 FG | A2 G2 F2 F2 | E2 ^D2 E2 E2 | E3 E E2 E2 | E3 E E2 E2 | A2 E2 E2 E2 | E3 D D2 F2 | %22
 D3 F F2 F2 | F4 F2 F2 | A2 =G2 F2 FA | (^G3 E) E2 | C2 | D3 D C2 C2 | D3 D C2 E2 | E2 D2 D2 CE | %30
 E2 D2 D2 C2 | D3 D | C2 C2 | D3 D C2 E2 | E2 D2 D2 CE | E2 D2 D2 C2 | A,3 C C2 C2 | C3 E E2 E2 | %38
 A2 E2 E2 E2 | E3 D D2 D2 | D3 F F2 F2 | F3 F F2 F2 | F3 F F2 F2 | F3 A A2 F2 | E6 E2 | E6 C2 | %46
 D6 D2 | C6 |] %48
V:3
!mf! E,2 |!<(! E,3 A, !breath!A,2 A,2 | A,3!<)! C !breath!C2!f! CD | E2 D2 C2 A,2 | %4
 A,3!>(! A, !breath!A,2!>)! |!<(! A,2 | A,3 D D2 D2!<)! | D3!>(! A, !breath!A,2!>)!!f! A,2 | %8
 A,2 A,2 A,2 A,C | D3!>(! C !breath!C2!>)!!mf! G,2 | G,3!<(! B, B,2 B,2!<)! | %11
 B,3!>(! E !breath!E2!>)!!p! .B,2 | .B,2 .B,2 .B,2 .B,2 | .B,2 .B,2 !breath!.B,2!mf! G,2 | %14
!<(! G,3 B, B,2!<)! B,2 | B,3!>(! E !breath!E2!>)!!p! .B,2 | .B,2 .B,2 .B,2 .B,2 | %17
 .B,2 .B,2 !breath!.B,2!mf! G,2 | !>!G,3!<(! A, A,2 D2 | !>!D3 C!<)! !breath!C2!f! CD | %20
 E2 D2!>(! C2 A,2!>)! | !>!A,3 A, !breath!A,2!p! D2 | A,3 D D2 D2 | %23
!pp! (D3 A,) !breath!A,2!mf! A,2 | A,2 ^A,2 B,2!>(! =A,2 | (D3 C) !breath!C2!>)! |!p! A,2 | %27
 !>!G,3 G, !breath!A,2 A,2 | !>!G,3 G, !breath!A,2!<(! A,C | B,2 B,2 B,2 A,C!<)! | %30
 D2!>(! B,2 !breath!B,2!>)!!p! A,2 | !>!G,3 G, | A,2 A,2 | !>!G,3 G, A,2!<(! A,C | %34
 B,2 B,2 B,2 A,C!<)! | D2!>(! B,2 !breath!B,2!>)!!mf! A,2 |!<(! E,3 A, A,2 A,2 | %37
 A,3 C!<)! !breath!C2!<(! CD | E2 D2!<)! C2 A,2 |!>(! A,3 A,!>)! !breath!A,2 A,2 | %40
!<(! A,3 A, A,2 A,2!<)! |!f! A,3!>(! D!>)! !breath!D2!f! D2 |!<(! D3 A, A,2 A,2!<)! | %43
!ff! A,3 D !breath!D2 D2 | D6 C2 | !breath!C6!pp! A,2 | G,6 B,2 | A,6 |] %48
V:4
 A,,2 | A,,3 A,, A,,2 A,,2 | A,,3 A,, A,,2 A,2 | A,2 A,2 A,2 C,2 | D,3 D, D,2 | D,2 | %6
 D,3 D, D,2 D,2 | D,3 D, !fermata!D,2 D,2 | D,2 D,2 D,2 ^D,2 | E,3 A, A,2 E,2 | E,3 E, E,2 E,2 | %11
 E,3 E, E,2 ^D,E, | F,2 E,2 ^D,2 A,2 | G,2 F,2 E,2 E,2 | E,3 E, E,2 E,2 | E,3 E, E,2 ^D,E, | %16
 F,2 E,2 ^D,2 A,2 | G,2 F,2 E,2 D,2 | D,3 C, C,2 B,,2 | B,,3 A,, A,,2 A,,2 | A,,2 B,,2 C,2 C,2 | %21
 D,3 D, D,2 D,2 | D,3 D, D,2 D,2 | D,4 !fermata!D,2 D,2 | D,2 D,2 D,2 ^D,2 | %25
 (E,3 A,) !fermata!A,2 | A,2 | E,3 E, A,,2 A,,2 | E,3 E, A,,2 A,,2 | E,2 F,2 G,2 A,2 | %30
 B,2 A,2 G,2 A,2 | E,3 E, | A,,2 A,,2 | E,3 E, A,,2 A,,2 | E,2 F,2 G,2 A,2 | B,2 A,2 G,2 A,2 | %36
 A,,3 A,, A,,2 A,,2 | A,,3 A,, A,,2 A,,2 | A,,2 B,,2 C,2 C,2 | D,3 D, D,2 D,2 | D,3 D, D,2 D,2 | %41
 D,3 D, D,2 D,2 | D,3 D, D,2 D,2 | D,3 D, !fermata!D,2 D,2 | E,6 A,2 | !fermata!A,6 A,2 | E,6 E,2 | %47
 !fermata!A,,6 |] %48

